X: 762
T: Katie's Fancy.
C:F. O'Neill.
B:O'Neill's Music of Ireland
N:O'Neill's - 762
Z:Transcribed by Stephen Foy (shf@access.digex.net)
Z:abc 1.6
M:6/8
R:Jig
K:G
G/E/|DEF G2 A|Bgf efg|dBG FGA|BGB AFD|\
DEF G2 A|Bgf dfg|dBG FGA|BGG G2:|
||d|gfe agf|gfe dBG|gfe dcB|AGA BGE|\
DEF G2 A|Bgf efg|dBG FGA|BGG G2:|
||d|dgf gab|eag fed|bag fag|fge d2 d|\
ece gfe|dBG DGB|cAF DFA|BGG G2:|


